!!!OTL: Der Plauderer.
!!!OTL-incipit: KENNT IHR NICHT DEN HERRN VON FALKENSTEIN
!!!ARE: Europa, Mitteleuropa, Deutschland, Odenwald
!!!SCT: Z1045
!!!TXL: @@DE
!!!YEM: Copyright 1995, estate of Helmut Schaffrath.
**kern	**text
*ICvox	*
*M2/4	*
*k[b-e-]	*
*B-:	*
!LO:TX:a:t=Einer.	!
!LO:TX:a:t=Aus dem Odenwald.	!
{16b-	Kennt
16b-	ihr
=1	=1
(16ddL	nicht
16ccJ)	.
(16b-L	den
16aJ)	.
8b-	Herrn
8f	von
=2	=2
8d	Falkenſtein?
8f	.
8b-}	.
!LO:TX:a:t=Der Andere.	!
{16b-	kennt
16b-	ihr
=3	=3
(16ddL	nicht
16ccJ)	.
(16b-\L	den
16aJ)	.
8b-	Herrn
8f	von
=4	=4
8d	Fal-
8f	-ken-
8b-}	-ſtein?
!LO:TX:a:t=Alle.	!
{16b-/	kennt
16b-/	ihr
=5	=5
8cc	nicht
8cc	den
8cc	Herrn
8dd	von
=6	=6
8ee-	Fal-
16ddL	-ken-
16ccJ	.
8dd}	-ſtein?
!LO:TX:a:t=Einer.	!
{8b-	Er
=7	=7
16ddL	hat
16ccJ	.
16b-L	drei
16aJ	.
8b-	ſchö-
8f	-ne
=8	=8
8d	Töchter-
8f	.
8b-}	-lein,
!LO:TX:a:t=Der Andere.	!
{8b-	er
=9	=9
16ddL	hat
16ccJ	.
16b-L	drei
16aJ	.
8b-	ſchö-
8f	-ne
=10	=10
8d	Töchter-
8f	.
8b-}	-lein,
!LO:TX:a:t=Alle.	!
{8b-	er
=11	=11
8cc	hat
8cc	drei
8cc	ſchöne
8dd	.
=12	=12
8ee-	Töchter-
16ddL	.
16ccJ	.
8dd}	-lein.
!LO:TX:a:t=Einer.	!
{16b-	Trinket
16b-	.
=13	=13
16ddL	aus,
16ccJ	.
!LO:TX:a:t=Andere.	!
16b-/	ſchenket
16a	.
8b-/	ein,
!LO:TX:a:t=Einer.	!
16b-	bringet
16b-	.
=14	=14
16ddL	Bier,
16ccJ	.
!LO:TX:a:t=Andere.	!
16b-/	bringet
16a	.
8b-/}	Wein!
!LO:TX:a:t=Einige.	!
{16b-/	langt
16b-/	den
=15	=15
16ddL	Be-
16ccJ	.
16b-/	-cher
16a	herum!
8b-/	.
!LO:TX:a:t=Andere.	!
16b-/	Mit
16b-/	hei-
=16	=16
16dd/L	-di,
16ccJ	.
16b-/	mit
16a	hei-
8b-/}	-dum,
!LO:TX:a:t=Alle.	!
{8b-/	hei-
=17	=17
16cc	-di-
16cc	-del-
16cc	-di-
16cc	-del-
8cc	-dum,
16cc	kennt
16cc	ihr
=18	=18
8cc	nicht
8cc	den
8cc	Herrn
8dd	von
=19	=19
8ee-	Fal-
16dd/L	-ken-
16ccJ	.
8dd;/}	-ſtein?
==	==
!!!AGN: Romanze, Ballade
!!!ONB: ESAC (Essen Associative Code) Database: ZUCCAL
!!!AMT: simple duple
!!!AIN: vox
!!!EED: Helmut Schaffrath
!!!EEV: 1.0
!!@@COMMENT:"In original two voices"
!!@@END:
!!!GTL: II. Gau- Leuschen.
!!!URL-scan: https://www.digitale-sammlungen.de/de/view/bsb11160573?page=107
!!!ENC: Anna Maria Matuszewska
!!!EEV: 2025/03/02
*-	*-
